X: 27034
T: Miss Graham
R: reel
M: 4/4
K: Dminor
|:D2 F<D A2 FA|BdAF AFEF|D2 F<D A2 FA|BdAF E3 A:|
dfef d2 Ad|BdAd fede|faef d2 Ad|BdAF E3 A|
dfef d2 Ad|BdAd fede|faef (3def Bd|AFdF E4||

